build/img/sprites/05.svg

<svg width="65" height="32" viewBox="0 0 65 32" fill="none" xmlns="http://www.w3.org/2000/svg">
<mask id="path-1-outside-1_627_3935" maskUnits="userSpaceOnUse" x="0" y="0" width="65" height="32" fill="black">
<rect fill="white" width="65" height="32"/>
<path d="M13.84 30.64C11.36 30.64 9.16 30.0667 7.24 28.92C5.34667 27.7733 3.85333 26.1067 2.76 23.92C1.69333 21.7333 1.16 19.0933 1.16 16C1.16 12.9067 1.69333 10.2667 2.76 8.08C3.85333 5.89333 5.34667 4.22666 7.24 3.08C9.16 1.93333 11.36 1.36 13.84 1.36C16.32 1.36 18.5067 1.93333 20.4 3.08C22.32 4.22666 23.8133 5.89333 24.88 8.08C25.9733 10.2667 26.52 12.9067 26.52 16C26.52 19.0933 25.9733 21.7333 24.88 23.92C23.8133 26.1067 22.32 27.7733 20.4 28.92C18.5067 30.0667 16.32 30.64 13.84 30.64ZM13.84 23.08C14.4533 23.08 15 22.8667 15.48 22.44C15.96 22.0133 16.3333 21.28 16.6 20.24C16.8933 19.2 17.04 17.7867 17.04 16C17.04 14.1867 16.8933 12.7733 16.6 11.76C16.3333 10.72 15.96 9.98667 15.48 9.56C15 9.13333 14.4533 8.92 13.84 8.92C13.2267 8.92 12.68 9.13333 12.2 9.56C11.72 9.98667 11.3333 10.72 11.04 11.76C10.7733 12.7733 10.64 14.1867 10.64 16C10.64 17.7867 10.7733 19.2 11.04 20.24C11.3333 21.28 11.72 22.0133 12.2 22.44C12.68 22.8667 13.2267 23.08 13.84 23.08ZM38.9353 30.64C37.0153 30.64 35.0686 30.4267 33.0953 30C31.122 29.5733 29.3886 28.9467 27.8953 28.12L31.0953 21.16C32.2953 21.8533 33.5486 22.3733 34.8553 22.72C36.162 23.04 37.402 23.2 38.5753 23.2C39.642 23.2 40.522 23.0133 41.2153 22.64C41.9086 22.2667 42.2553 21.72 42.2553 21C42.2553 20.6 42.1353 20.2533 41.8953 19.96C41.6553 19.64 41.2286 19.4 40.6153 19.24C40.0286 19.08 39.162 19 38.0153 19H29.8953L31.2953 2H49.8953V9.12H34.6153L39.3753 5.08L38.5353 15.92L33.7753 11.88H40.2953C43.0686 11.88 45.282 12.28 46.9353 13.08C48.6153 13.88 49.8286 14.96 50.5753 16.32C51.3486 17.6533 51.7353 19.1467 51.7353 20.8C51.7353 22.4533 51.282 24.04 50.3753 25.56C49.4953 27.0533 48.1086 28.28 46.2153 29.24C44.3486 30.1733 41.922 30.64 38.9353 30.64ZM58.5409 30.4C57.0476 30.4 55.7943 29.92 54.7809 28.96C53.7676 27.9733 53.2609 26.72 53.2609 25.2C53.2609 23.6533 53.7676 22.4133 54.7809 21.48C55.7943 20.5467 57.0476 20.08 58.5409 20.08C60.0343 20.08 61.2876 20.5467 62.3009 21.48C63.3143 22.4133 63.8209 23.6533 63.8209 25.2C63.8209 26.72 63.3143 27.9733 62.3009 28.96C61.2876 29.92 60.0343 30.4 58.5409 30.4Z"/>
</mask>
<path d="M7.24 28.92L6.72196 29.7754L6.72726 29.7785L7.24 28.92ZM2.76 23.92L1.86119 24.3584L1.86557 24.3672L2.76 23.92ZM2.76 8.08L1.86553 7.63276L1.86123 7.64157L2.76 8.08ZM7.24 3.08L6.72725 2.22144L6.72197 2.22464L7.24 3.08ZM20.4 3.08L19.882 3.93537L19.8873 3.93854L20.4 3.08ZM24.88 8.08L23.9812 8.51844L23.9856 8.52721L24.88 8.08ZM24.88 23.92L23.9855 23.4728L23.9812 23.4816L24.88 23.92ZM20.4 28.92L19.8873 28.0614L19.882 28.0646L20.4 28.92ZM16.6 20.24L15.6376 19.9685L15.6343 19.98L15.6313 19.9916L16.6 20.24ZM16.6 11.76L15.6313 12.0084L15.6352 12.0233L15.6394 12.0381L16.6 11.76ZM15.48 9.56L16.1444 8.81259L16.1444 8.81259L15.48 9.56ZM12.2 9.56L11.5356 8.81259V8.81259L12.2 9.56ZM11.04 11.76L10.0776 11.4885L10.0752 11.497L10.0729 11.5055L11.04 11.76ZM11.04 20.24L10.0713 20.4884L10.0743 20.5L10.0776 20.5115L11.04 20.24ZM13.84 29.64C11.5203 29.64 9.50125 29.1057 7.75274 28.0615L6.72726 29.7785C8.81876 31.0276 11.1997 31.64 13.84 31.64V29.64ZM7.75804 28.0646C6.04278 27.0258 4.67246 25.5089 3.65443 23.4728L1.86557 24.3672C3.03421 26.7045 4.65055 28.5208 6.72197 29.7754L7.75804 28.0646ZM3.65877 23.4816C2.67427 21.4634 2.16 18.9814 2.16 16H0.16C0.16 19.2053 0.712395 22.0033 1.86123 24.3584L3.65877 23.4816ZM2.16 16C2.16 13.0186 2.67427 10.5366 3.65877 8.51842L1.86123 7.64157C0.712395 9.99669 0.16 12.7947 0.16 16H2.16ZM3.65443 8.52721C4.67246 6.49114 6.04278 4.97417 7.75803 3.93536L6.72197 2.22464C4.65055 3.47916 3.03421 5.29552 1.86557 7.63278L3.65443 8.52721ZM7.75274 3.93854C9.50125 2.8943 11.5203 2.36 13.84 2.36V0.359999C11.1997 0.359999 8.81876 0.972368 6.72726 2.22145L7.75274 3.93854ZM13.84 2.36C16.1599 2.36 18.1631 2.89435 19.882 3.93536L20.918 2.22464C18.8502 0.97231 16.4801 0.359999 13.84 0.359999V2.36ZM19.8873 3.93854C21.6259 4.97688 22.9919 6.49031 23.9812 8.51842L25.7788 7.64157C24.6348 5.29635 23.0141 3.47645 20.9127 2.22146L19.8873 3.93854ZM23.9856 8.52721C24.9935 10.5431 25.52 13.0218 25.52 16H27.52C27.52 12.7915 26.9531 9.99019 25.7744 7.63278L23.9856 8.52721ZM25.52 16C25.52 18.9782 24.9935 21.4569 23.9856 23.4728L25.7744 24.3672C26.9531 22.0098 27.52 19.2085 27.52 16H25.52ZM23.9812 23.4816C22.9919 25.5097 21.6259 27.0231 19.8873 28.0615L20.9127 29.7785C23.0141 28.5235 24.6348 26.7036 25.7788 24.3584L23.9812 23.4816ZM19.882 28.0646C18.1631 29.1056 16.1599 29.64 13.84 29.64V31.64C16.4801 31.64 18.8502 31.0277 20.918 29.7754L19.882 28.0646ZM13.84 24.08C14.7106 24.08 15.4907 23.7684 16.1444 23.1874L14.8156 21.6926C14.5093 21.9649 14.1961 22.08 13.84 22.08V24.08ZM16.1444 23.1874C16.843 22.5664 17.2824 21.6049 17.5687 20.4884L15.6313 19.9916C15.3843 20.9551 15.077 21.4603 14.8156 21.6926L16.1444 23.1874ZM17.5625 20.5115C17.8916 19.3444 18.04 17.827 18.04 16H16.04C16.04 17.7464 15.8951 19.0555 15.6376 19.9685L17.5625 20.5115ZM18.04 16C18.04 14.1497 17.8922 12.6277 17.5606 11.4819L15.6394 12.0381C15.8944 12.919 16.04 14.2236 16.04 16H18.04ZM17.5687 11.5116C17.2824 10.3951 16.843 9.43364 16.1444 8.81259L14.8156 10.3074C15.077 10.5397 15.3843 11.0449 15.6313 12.0084L17.5687 11.5116ZM16.1444 8.81259C15.4907 8.23159 14.7106 7.92 13.84 7.92V9.92C14.1961 9.92 14.5093 10.0351 14.8156 10.3074L16.1444 8.81259ZM13.84 7.92C12.9694 7.92 12.1893 8.23159 11.5356 8.81259L12.8644 10.3074C13.1707 10.0351 13.4839 9.92 13.84 9.92V7.92ZM11.5356 8.81259C10.8456 9.42599 10.3912 10.3765 10.0776 11.4885L12.0025 12.0315C12.2755 11.0635 12.5944 10.5473 12.8644 10.3074L11.5356 8.81259ZM10.0729 11.5055C9.77415 12.6409 9.64 14.1535 9.64 16H11.64C11.64 14.2198 11.7725 12.9058 12.0071 12.0145L10.0729 11.5055ZM9.64 16C9.64 17.8229 9.77468 19.3314 10.0713 20.4884L12.0087 19.9916C11.772 19.0686 11.64 17.7504 11.64 16H9.64ZM10.0776 20.5115C10.3912 21.6235 10.8456 22.574 11.5356 23.1874L12.8644 21.6926C12.5944 21.4527 12.2755 20.9365 12.0025 19.9685L10.0776 20.5115ZM11.5356 23.1874C12.1893 23.7684 12.9694 24.08 13.84 24.08V22.08C13.4839 22.08 13.1707 21.9649 12.8644 21.6926L11.5356 23.1874ZM27.8953 28.12L26.9867 27.7023L26.5991 28.5454L27.411 28.9949L27.8953 28.12ZM31.0953 21.16L31.5956 20.2941L30.6452 19.745L30.1867 20.7423L31.0953 21.16ZM34.8553 22.72L34.5989 23.6866L34.6081 23.689L34.6174 23.6913L34.8553 22.72ZM41.2153 22.64L41.6894 23.5205L41.2153 22.64ZM41.8953 19.96L41.0953 20.56L41.108 20.5769L41.1214 20.5932L41.8953 19.96ZM40.6153 19.24L40.3522 20.2048L40.3629 20.2076L40.6153 19.24ZM29.8953 19L28.8987 18.9179L28.8096 20H29.8953V19ZM31.2953 2V0.999998H30.3743L30.2987 1.91792L31.2953 2ZM49.8953 2H50.8953V0.999998H49.8953V2ZM49.8953 9.12V10.12H50.8953V9.12H49.8953ZM34.6153 9.12L33.9682 8.35759L31.8917 10.12H34.6153V9.12ZM39.3753 5.08L40.3723 5.15726L40.5577 2.76482L38.7282 4.31759L39.3753 5.08ZM38.5353 15.92L37.8882 16.6824L39.3811 17.9494L39.5323 15.9973L38.5353 15.92ZM33.7753 11.88V10.88H31.0517L33.1282 12.6424L33.7753 11.88ZM46.9353 13.08L46.4997 13.9802L46.5054 13.9829L46.9353 13.08ZM50.5753 16.32L49.6987 16.8013L49.7044 16.8116L49.7103 16.8217L50.5753 16.32ZM50.3753 25.56L49.5165 25.0477L49.5138 25.0523L50.3753 25.56ZM46.2153 29.24L46.6625 30.1344L46.6675 30.1319L46.2153 29.24ZM38.9353 29.64C37.0899 29.64 35.2141 29.435 33.3066 29.0226L32.884 30.9774C34.9232 31.4183 36.9407 31.64 38.9353 31.64V29.64ZM33.3066 29.0226C31.4119 28.6129 29.7735 28.0167 28.3796 27.2451L27.411 28.9949C29.0038 29.8766 30.8321 30.5338 32.884 30.9774L33.3066 29.0226ZM28.8039 28.5377L32.0039 21.5777L30.1867 20.7423L26.9867 27.7023L28.8039 28.5377ZM30.595 22.0259C31.8696 22.7623 33.2047 23.3167 34.5989 23.6866L35.1117 21.7534C33.8926 21.43 32.7211 20.9444 31.5956 20.2941L30.595 22.0259ZM34.6174 23.6913C35.9909 24.0276 37.3111 24.2 38.5753 24.2V22.2C37.4928 22.2 36.3331 22.0524 35.0932 21.7487L34.6174 23.6913ZM38.5753 24.2C39.7514 24.2 40.8079 23.9951 41.6894 23.5205L40.7412 21.7595C40.2361 22.0315 39.5326 22.2 38.5753 22.2V24.2ZM41.6894 23.5205C42.1546 23.27 42.5567 22.932 42.8398 22.4855C43.1259 22.0344 43.2553 21.5277 43.2553 21H41.2553C41.2553 21.1923 41.2114 21.3189 41.1508 21.4145C41.0872 21.5147 40.9694 21.6367 40.7412 21.7595L41.6894 23.5205ZM43.2553 21C43.2553 20.383 43.064 19.8092 42.6693 19.3268L41.1214 20.5932C41.2067 20.6975 41.2553 20.817 41.2553 21H43.2553ZM42.6953 19.36C42.2604 18.7801 41.5801 18.4582 40.8677 18.2724L40.3629 20.2076C40.8772 20.3418 41.0502 20.4999 41.0953 20.56L42.6953 19.36ZM40.8784 18.2752C40.1609 18.0795 39.1871 18 38.0153 18V20C39.1368 20 39.8964 20.0805 40.3522 20.2048L40.8784 18.2752ZM38.0153 18H29.8953V20H38.0153V18ZM30.8919 19.0821L32.2919 2.08207L30.2987 1.91792L28.8987 18.9179L30.8919 19.0821ZM31.2953 3H49.8953V0.999998H31.2953V3ZM48.8953 2V9.12H50.8953V2H48.8953ZM49.8953 8.12H34.6153V10.12H49.8953V8.12ZM35.2624 9.88241L40.0224 5.84241L38.7282 4.31759L33.9682 8.35759L35.2624 9.88241ZM38.3783 5.00274L37.5383 15.8427L39.5323 15.9973L40.3723 5.15726L38.3783 5.00274ZM39.1824 15.1576L34.4224 11.1176L33.1282 12.6424L37.8882 16.6824L39.1824 15.1576ZM33.7753 12.88H40.2953V10.88H33.7753V12.88ZM40.2953 12.88C42.9879 12.88 45.0337 13.2708 46.4998 13.9802L47.3709 12.1798C45.5303 11.2892 43.1494 10.88 40.2953 10.88V12.88ZM46.5054 13.9829C48.0346 14.7111 49.0719 15.6594 49.6987 16.8013L51.4519 15.8387C50.5854 14.2606 49.196 13.0489 47.3652 12.1771L46.5054 13.9829ZM49.7103 16.8217C50.3888 17.9916 50.7353 19.3096 50.7353 20.8H52.7353C52.7353 18.9837 52.3085 17.3151 51.4403 15.8183L49.7103 16.8217ZM50.7353 20.8C50.7353 22.2602 50.3375 23.6713 49.5165 25.0477L51.2341 26.0723C52.2264 24.4087 52.7353 22.6465 52.7353 20.8H50.7353ZM49.5138 25.0523C48.7505 26.3476 47.5245 27.455 45.7631 28.3481L46.6675 30.1319C48.6928 29.105 50.2401 27.7591 51.2369 26.0677L49.5138 25.0523ZM45.7681 28.3456C44.087 29.1861 41.8291 29.64 38.9353 29.64V31.64C42.0149 31.64 44.6103 31.1605 46.6625 30.1344L45.7681 28.3456ZM54.7809 28.96L54.0833 29.6765L54.0932 29.686L54.7809 28.96ZM54.7809 21.48L54.1035 20.7445V20.7445L54.7809 21.48ZM62.3009 21.48L62.9784 20.7445V20.7445L62.3009 21.48ZM62.3009 28.96L62.9887 29.686L62.9986 29.6765L62.3009 28.96ZM58.5409 29.4C57.2839 29.4 56.2825 29.005 55.4687 28.234L54.0932 29.686C55.306 30.835 56.8114 31.4 58.5409 31.4V29.4ZM55.4786 28.2435C54.674 27.4602 54.2609 26.4725 54.2609 25.2H52.2609C52.2609 26.9675 52.8612 28.4865 54.0833 29.6765L55.4786 28.2435ZM54.2609 25.2C54.2609 23.8949 54.677 22.9353 55.4584 22.2155L54.1035 20.7445C52.8582 21.8914 52.2609 23.4118 52.2609 25.2H54.2609ZM55.4584 22.2155C56.2709 21.4672 57.2757 21.08 58.5409 21.08V19.08C56.8196 19.08 55.3176 19.6261 54.1035 20.7445L55.4584 22.2155ZM58.5409 21.08C59.8062 21.08 60.811 21.4672 61.6235 22.2155L62.9784 20.7445C61.7642 19.6261 60.2623 19.08 58.5409 19.08V21.08ZM61.6235 22.2155C62.4049 22.9353 62.8209 23.8949 62.8209 25.2H64.8209C64.8209 23.4118 64.2237 21.8914 62.9784 20.7445L61.6235 22.2155ZM62.8209 25.2C62.8209 26.4725 62.4078 27.4602 61.6033 28.2435L62.9986 29.6765C64.2207 28.4865 64.8209 26.9675 64.8209 25.2H62.8209ZM61.6132 28.234C60.7994 29.005 59.798 29.4 58.5409 29.4V31.4C60.2705 31.4 61.7758 30.835 62.9887 29.686L61.6132 28.234Z" fill="#78213A" mask="url(#path-1-outside-1_627_3935)"/>
</svg>

<svg width="65" height="32" viewBox="0 0 65 32" fill="none" xmlns="http://www.w3.org/2000/svg"><mask id="path-1-outside-1_627_3935" maskUnits="userSpaceOnUse" x="0" y="0" width="65" height="32" fill="#000"><path fill="#fff" d="M0 0h65v32H0z"/><path d="M13.84 30.64c-2.48 0-4.68-.573-6.6-1.72-1.893-1.147-3.387-2.813-4.48-5-1.067-2.187-1.6-4.827-1.6-7.92s.533-5.733 1.6-7.92c1.093-2.187 2.587-3.853 4.48-5 1.92-1.147 4.12-1.72 6.6-1.72 2.48 0 4.667.573 6.56 1.72 1.92 1.147 3.413 2.813 4.48 5 1.093 2.187 1.64 4.827 1.64 7.92s-.547 5.733-1.64 7.92c-1.067 2.187-2.56 3.853-4.48 5-1.893 1.147-4.08 1.72-6.56 1.72zm0-7.56c.613 0 1.16-.213 1.64-.64.48-.427.853-1.16 1.12-2.2.293-1.04.44-2.453.44-4.24 0-1.813-.147-3.227-.44-4.24-.267-1.04-.64-1.773-1.12-2.2-.48-.427-1.027-.64-1.64-.64s-1.16.213-1.64.64c-.48.427-.867 1.16-1.16 2.2-.267 1.013-.4 2.427-.4 4.24 0 1.787.133 3.2.4 4.24.293 1.04.68 1.773 1.16 2.2.48.427 1.027.64 1.64.64zm25.095 7.56a27.56 27.56 0 01-5.84-.64c-1.973-.427-3.706-1.053-5.2-1.88l3.2-6.96c1.2.693 2.454 1.213 3.76 1.56 1.307.32 2.547.48 3.72.48 1.067 0 1.947-.187 2.64-.56.694-.373 1.04-.92 1.04-1.64 0-.4-.12-.747-.36-1.04-.24-.32-.666-.56-1.28-.72-.586-.16-1.453-.24-2.6-.24h-8.12l1.4-17h18.6v7.12h-15.28l4.76-4.04-.84 10.84-4.76-4.04h6.52c2.774 0 4.987.4 6.64 1.2 1.68.8 2.894 1.88 3.64 3.24.774 1.333 1.16 2.827 1.16 4.48 0 1.653-.453 3.24-1.36 4.76-.88 1.493-2.266 2.72-4.16 3.68-1.866.933-4.293 1.4-7.28 1.4zm19.606-.24c-1.493 0-2.747-.48-3.76-1.44-1.013-.987-1.52-2.24-1.52-3.76 0-1.547.507-2.787 1.52-3.72 1.013-.933 2.267-1.4 3.76-1.4 1.493 0 2.747.467 3.76 1.4 1.013.933 1.52 2.173 1.52 3.72 0 1.52-.507 2.773-1.52 3.76-1.013.96-2.267 1.44-3.76 1.44z"/></mask><path d="M7.24 28.92l-.518.855.005.004.513-.859zm-4.48-5l-.899.438.005.01.894-.448zm0-15.84l-.894-.447-.005.009.899.438zm4.48-5l-.513-.859-.005.004.518.855zm13.16 0l-.518.855.005.004.513-.859zm4.48 5l-.899.438.005.01.894-.448zm0 15.84l-.895-.447-.004.009.899.438zm-4.48 5l-.513-.859-.005.004.518.855zm-3.8-8.68l-.962-.271-.004.011-.003.012.969.248zm0-8.48l-.969.248.004.015.004.015.961-.278zm-1.12-2.2l.664-.747-.664.747zm-3.28 0l-.664-.747.664.747zm-1.16 2.2l-.962-.271-.003.008-.002.008.967.255zm0 8.48l-.969.248.003.012.004.012.962-.272zm2.8 9.4c-2.32 0-4.339-.534-6.087-1.579L6.727 29.78c2.093 1.247 4.473 1.86 7.113 1.86v-2zm-6.082-1.575c-1.715-1.04-3.086-2.556-4.104-4.592l-1.788.894c1.168 2.337 2.785 4.154 4.856 5.408l1.036-1.71zm-4.1-4.583C2.675 21.463 2.16 18.982 2.16 16h-2c0 3.205.552 6.003 1.701 8.358l1.798-.876zM2.16 16c0-2.981.514-5.463 1.499-7.482L1.86 7.642C.712 9.997.16 12.795.16 16h2zm1.494-7.473c1.018-2.036 2.389-3.553 4.104-4.592l-1.036-1.71c-2.071 1.254-3.688 3.07-4.856 5.408l1.788.894zM7.753 3.94C9.5 2.894 11.52 2.36 13.84 2.36v-2c-2.64 0-5.021.612-7.113 1.861L7.753 3.94zm6.087-1.58c2.32 0 4.323.534 6.042 1.575l1.036-1.71C18.85.972 16.48.36 13.84.36v2zm6.047 1.579c1.739 1.038 3.105 2.551 4.094 4.58l1.798-.877c-1.144-2.346-2.765-4.166-4.866-5.42l-1.026 1.717zm4.099 4.588c1.008 2.016 1.534 4.495 1.534 7.473h2c0-3.209-.567-6.01-1.746-8.367l-1.788.894zM25.52 16c0 2.978-.526 5.457-1.534 7.473l1.788.894c1.18-2.357 1.746-5.159 1.746-8.367h-2zm-1.539 7.482c-.99 2.028-2.355 3.541-4.094 4.58l1.026 1.716c2.101-1.255 3.722-3.074 4.866-5.42l-1.798-.876zm-4.099 4.583c-1.719 1.04-3.722 1.575-6.042 1.575v2c2.64 0 5.01-.612 7.078-1.865l-1.036-1.71zM13.84 24.08c.87 0 1.65-.312 2.304-.893l-1.328-1.494c-.307.272-.62.387-.976.387v2zm2.304-.893c.699-.62 1.138-1.582 1.425-2.699l-1.938-.496c-.247.963-.554 1.468-.815 1.7l1.328 1.495zm1.419-2.675c.329-1.168.477-2.685.477-4.512h-2c0 1.746-.145 3.055-.402 3.968l1.925.544zM18.04 16c0-1.85-.148-3.372-.48-4.518l-1.92.556c.254.881.4 2.186.4 3.962h2zm-.471-4.488c-.287-1.117-.726-2.078-1.425-2.7l-1.328 1.495c.261.233.568.738.815 1.701l1.938-.496zm-1.425-2.7c-.653-.58-1.433-.892-2.304-.892v2c.356 0 .67.115.976.387l1.328-1.494zM13.84 7.92c-.87 0-1.65.312-2.304.893l1.328 1.494c.307-.272.62-.387.976-.387v-2zm-2.304.893c-.69.613-1.145 1.563-1.458 2.675l1.925.543c.272-.968.591-1.484.861-1.724l-1.328-1.494zm-1.463 2.692C9.774 12.641 9.64 14.153 9.64 16h2c0-1.78.133-3.094.367-3.986l-1.934-.508zM9.64 16c0 1.823.135 3.331.431 4.488l1.938-.496c-.237-.923-.369-2.242-.369-3.992h-2zm.438 4.512c.313 1.111.768 2.062 1.458 2.675l1.328-1.494c-.27-.24-.589-.757-.862-1.725l-1.924.544zm1.458 2.675c.653.581 1.433.893 2.304.893v-2c-.356 0-.67-.115-.976-.387l-1.328 1.494zm16.36 4.933l-.91-.418-.387.843.812.45.484-.875zm3.2-6.96l.5-.866-.95-.549-.46.997.91.418zm3.76 1.56l-.257.967.01.002.008.002.238-.971zm6.36-.08l.473.88-.474-.88zm.68-2.68l-.8.6.012.017.013.016.774-.633zm-1.28-.72l-.264.965.01.003.253-.968zM29.895 19l-.997-.082-.09 1.082h1.086v-1zm1.4-17V1h-.922l-.075.918.996.082zm18.6 0h1V1h-1v1zm0 7.12v1h1v-1h-1zm-15.28 0l-.648-.762-2.076 1.762h2.723v-1zm4.76-4.04l.996.077.186-2.392-1.83 1.553.647.762zm-.84 10.84l-.648.762 1.493 1.267.151-1.952-.997-.077zm-4.76-4.04v-1h-2.724l2.076 1.762.647-.762zm13.16 1.2l-.436.9.005.003.43-.903zm3.64 3.24l-.877.481.005.01.006.01.865-.501zm-.2 9.24l-.86-.512-.002.004.861.508zm-4.16 3.68l.447.894.005-.002-.453-.892zm-7.28.4a26.58 26.58 0 01-5.63-.617l-.422 1.954c2.04.441 4.057.663 6.051.663v-2zm-5.63-.617c-1.894-.41-3.532-1.006-4.926-1.778l-.969 1.75c1.593.882 3.421 1.539 5.473 1.982l.423-1.954zm-4.502-.485l3.2-6.96-1.817-.836-3.2 6.96 1.817.836zm1.791-6.512c1.275.736 2.61 1.29 4.004 1.66l.513-1.933a14.363 14.363 0 01-3.516-1.459l-1.001 1.732zm4.022 1.665c1.374.337 2.694.509 3.958.509v-2c-1.082 0-2.242-.148-3.482-.451l-.476 1.942zm3.958.509c1.176 0 2.233-.205 3.114-.68l-.948-1.76c-.505.271-1.208.44-2.166.44v2zm3.114-.68c.466-.25.868-.588 1.15-1.035.287-.45.416-.957.416-1.485h-2a.741.741 0 01-.104.415c-.064.1-.182.222-.41.345l.948 1.76zM43.255 21a2.59 2.59 0 00-.586-1.673l-1.548 1.266a.595.595 0 01.134.407h2zm-.56-1.64c-.435-.58-1.115-.902-1.827-1.088l-.505 1.936c.514.134.687.292.732.352l1.6-1.2zm-1.817-1.085c-.717-.195-1.69-.275-2.863-.275v2c1.122 0 1.881.08 2.337.205l.526-1.93zM38.015 18h-8.12v2h8.12v-2zm-7.123 1.082l1.4-17-1.993-.164-1.4 17 1.993.164zM31.295 3h18.6V1h-18.6v2zm17.6-1v7.12h2V2h-2zm1 6.12h-15.28v2h15.28v-2zM35.262 9.882l4.76-4.04-1.294-1.524-4.76 4.04 1.294 1.524zm3.116-4.88l-.84 10.84 1.994.155.84-10.84-1.994-.154zm.804 10.156l-4.76-4.04-1.294 1.524 4.76 4.04 1.294-1.524zm-5.407-2.278h6.52v-2h-6.52v2zm6.52 0c2.693 0 4.739.39 6.205 1.1l.87-1.8c-1.84-.89-4.22-1.3-7.075-1.3v2zm6.21 1.103c1.53.728 2.567 1.676 3.194 2.818l1.753-.962c-.867-1.578-2.256-2.79-4.087-3.662l-.86 1.806zm3.205 2.839c.679 1.17 1.025 2.488 1.025 3.978h2c0-1.816-.426-3.485-1.295-4.982l-1.73 1.004zm1.025 3.978c0 1.46-.398 2.871-1.218 4.248l1.717 1.024c.992-1.663 1.501-3.425 1.501-5.272h-2zm-1.221 4.252c-.764 1.296-1.99 2.403-3.75 3.296l.903 1.784c2.026-1.027 3.573-2.373 4.57-4.064l-1.723-1.016zm-3.746 3.294c-1.681.84-3.939 1.294-6.833 1.294v2c3.08 0 5.675-.48 7.727-1.506l-.894-1.788zm9.013.614l-.698.716.01.01.688-.726zm0-7.48l-.678-.736.678.736zm7.52 0l.677-.736-.677.736zm0 7.48l.688.726.01-.01-.698-.716zm-3.76.44c-1.257 0-2.258-.395-3.072-1.166l-1.376 1.452c1.213 1.149 2.718 1.714 4.448 1.714v-2zm-3.062-1.156c-.805-.784-1.218-1.771-1.218-3.044h-2c0 1.768.6 3.287 1.822 4.477l1.396-1.433zM54.26 25.2c0-1.305.416-2.265 1.197-2.985l-1.355-1.47c-1.245 1.146-1.842 2.667-1.842 4.455h2zm1.197-2.985c.813-.748 1.818-1.135 3.083-1.135v-2c-1.721 0-3.223.546-4.438 1.665l1.355 1.47zm3.083-1.135c1.265 0 2.27.387 3.083 1.136l1.354-1.472c-1.214-1.118-2.716-1.664-4.437-1.664v2zm3.083 1.136c.78.72 1.197 1.679 1.197 2.984h2c0-1.788-.597-3.309-1.843-4.456l-1.355 1.471zM62.82 25.2c0 1.273-.413 2.26-1.218 3.044L63 29.677c1.222-1.19 1.822-2.71 1.822-4.477h-2zm-1.208 3.034c-.814.771-1.815 1.166-3.072 1.166v2c1.73 0 3.235-.565 4.448-1.714l-1.376-1.452z" fill="#78213A" mask="url(#path-1-outside-1_627_3935)"/></svg>
